!!!OTL: KEHR WIEDER GLUECK MIT FREUDEN
!!!ARE: Europa, Mitteleuropa, Deutschland
!!!SCT: E1662
!!!YEM: Copyright 1995, estate of Helmut Schaffrath.
**kern
*ICvox
*Ivox
*M4/4
*k[f#]
*G:
{4g
4g
4g
=1
4.cc
8dd
4ee
4cc
=2
2dd
4cc}
{4cc
=3
4dd
4cc
4b
8a
8g
=4
4a
4a
2g
=5
4r}
{4g
4g
4g
=6
4.cc
8dd
4ee
4cc
=7
2dd
4cc}
{4cc
=8
4dd
4cc
4b
8a
8g
=9
4a
4a
2g
=10
4r}
{4dd
4dd
4dd
=11
4cc
4ee
4dd
4cc
=12
2dd
4r}
{4g
=13
4cc
4b
4a
4g
=14
4a
4b
4g}
{4cc
=15
4g
4cc
4b
4g
=16
4a
4a
2g
=17
4r}
==
!!!AGN: Staende -, Hofe -, Ritter - Lied, Liebe
!!!ONB: ESAC (Essen Associative Code) Database: ERK3
!!!AMT: simple quadruple
!!!AIN: vox
!!!EED: Helmut Schaffrath
!!!EEV: 1.0
*-
